X:1
T:Hear the Word
T:Hear the Word
T:Daniel Brink Towner
T:Julia Harriet Johnston, 1897
T:Public Domain Courtesy of the Cyber Hymnal™
T:Public Domain Courtesy of the Cyber Hymnal™
C:Daniel Brink Towner
Z:Public Domain
Z:Courtesy of the Cyber Hymnal™
%%score ( 1 2 ) ( 3 4 )
L:1/8
Q:1/4=110
M:4/4
K:Bb
V:1 treble 
V:2 treble 
V:3 bass 
V:4 bass 
V:1
 [DF]>[EG] [DF]>[CE] [B,D]>[DF] [DB]>[Ec] | [DB]2 [CA]2 [EA]4 | %2
w: 1.~Come, for all is rea- dy, and the|feast is spread,|
w: 2.~Gos- pel bells are ring- ing, hear the|e- cho sweet,|
w: 3.~Wel- come, ev- er wel- come to the|feast of love,|
w: 4.~You who know how pre- cious is His|grace so free,|
 [Ec]>[Ed] [Ec]>[DB] [EA]>[EF] [EG]>[EA] | [Ec]2 [DB]2 [DB]4 | [Fd]>[Ge] [Fd]>[Ec] | %5
w: Come, for Je- sus of- fers you the|liv- ing Bread,|Hear His in- vi-|
w: Call- ing in the wan- d’ring to the|Sav- ior’s feet,|Heed the ten- der|
w: Who- so- ev- er will, may see His|face a- bove,|Hark, with hal- le-|
w: Take the gift of life yet more a-|bun- dant- ly.|Spread the in- vi-|
 [DB]>[DF] [^C=E]>[DF] | [EG]2 [Ec]2 [Ge]4 | [Fd]>[Fe] [Fd]>[Ec] [DB]2 [EA]2 | [DB]8 || %9
w: ta- tion, ’mid the|toil and strife,|Come, and take the gift of|life.|
w: mes- sage, seek the|great re- ward,|Hear the voice of Christ your|Lord.|
w: lu- jahs, how the|high courts ring,|Come, and crown the Sav- ior|King.|
w: ta- tion, there is|room for all,|Sound a- broad the lov- ing|call.|
"^Refrain" (F4 B2) [FA]2 | [EG]6 z2 | (G4 c2) [GB]2 | [FA]6 z2 | (A4 d2) [Ac]2 | B4 [Ge]4 | %15
w: ||||||
w: Hear * the|word,|All * may|come,s|With- * out|price, Come|
w: ||||||
w: ||||||
 [Fd]>[Fe] [Fd]>[Ec] [DB]2 [EA]2 | [DB]8 |] %17
w: ||
w: * and take e- ter- nal|life.|
w: ||
w: ||
V:2
 x8 | x8 | x8 | x8 | x4 | x4 | x8 | x8 | x8 || D6 x2 | x8 | =E6 x2 | x8 | ^F6 x2 | G2 _A2 x4 | x8 | %16
 x8 |] %17
V:3
 [B,,B,]>[B,,B,] [B,,B,]>[B,,F,] [B,,F,]>[B,,F,] [B,,F,]>[B,,F,] | F,2 [F,A,]2 [A,C]4 | %2
w: ~ ~ ~ ~ ~ ~ ~ ~|~ ~ ~|
 [F,A,]>[F,A,] [F,A,]>[F,B,] [F,C]>[F,C] [F,C]>[F,C] | [B,,B,]2 [B,,F,]2 [B,,F,]4 | %4
w: ~ ~ ~ ~ ~ ~ ~ ~|~ ~ ~|
 [B,,B,]>[B,,B,] [B,,B,]>[B,,B,] | [B,,F,]>[B,,F,] [B,,B,]>[B,,B,] | [E,B,]2 [E,G,]2 [E,B,]4 | %7
w: ~ ~ ~ ~|~ ~ ~ ~|~ ~ ~|
 [F,B,]>[F,B,] [F,B,]>[F,A,] [F,B,]2 [F,C]2 | [B,,B,]8 || [B,,B,]2 [B,,B,]2 [B,,F,]2 [D,B,]2 | %10
w: ~ ~ ~ ~ ~ ~|~|Hear the word of|
 [E,B,]2 [E,B,]2 B,4 | [C,C]2 [C,C]2 [C,G,]2 [=E,C]2 | [F,C]2 [F,C]2 C4 | %13
w: God’s own Son,|Who- so- ev- er|will, may come.|
 [D,D]2 [D,D]2 [D,A,]2 [^F,E]2 | [G,D]2 [F,B,]2 [E,B,]4 | %15
w: With- out mo- ney,|with- out price,|
 [F,B,]>[F,B,] [F,B,]>[F,A,] [F,B,]2 [F,C]2 | [B,,B,]8 |] %17
w: ||
V:4
 x8 | F,2 x6 | x8 | x8 | x4 | x4 | x8 | x8 | x8 || x8 | x4 (E,2 D,2) | x8 | x4 (F,2 E,2) | x8 | %14
 x8 | x8 | x8 |] %17

